src/assets/filled/Bootsrap.svg

<svg width="24" height="24" viewBox="0 0 24 24"  xmlns="http://www.w3.org/2000/svg">
<path d="M12.67 12.75H10.5V15.42H12.67C13.41 15.42 14 14.82 14 14.09C14 13.36 13.4 12.75 12.67 12.75Z" />
<path d="M12.67 8.58008H10.5V11.2501H12.67C13.41 11.2501 14 10.6501 14 9.9201C14 9.1901 13.4 8.58008 12.67 8.58008Z" />
<path d="M23 11C21.81 11 20.75 10.24 20.37 9.10001C20.13 8.37001 20 7.59999 20 6.82999V6C20 4.34 18.66 3 17 3H7C5.34 3 4 4.34 4 6V6.84C4 7.61 3.88 8.36999 3.63 9.10999C3.25 10.24 2.19 11.01 1 11.01V13.01C2.19 13.01 3.25 13.77 3.63 14.91C3.87 15.64 4 16.41 4 17.17V18C4 19.66 5.34 21 7 21H17C18.66 21 20 19.66 20 18V17.16C20 16.39 20.12 15.63 20.37 14.9C20.75 13.77 21.81 13 23 13V11ZM15.5 14.08C15.5 15.64 14.23 16.91 12.67 16.91H9.75C9.34 16.91 9 16.57 9 16.16V7.82999C9 7.41999 9.34 7.07999 9.75 7.07999H12.67C14.23 7.07999 15.5 8.35 15.5 9.91C15.5 10.73 15.15 11.48 14.58 11.99C15.15 12.52 15.5 13.26 15.5 14.08Z" />
</svg>

<?xml version="1.0" encoding="UTF-8"?>
<svg width="24" height="24" viewBox="0 0 24 24" xmlns="http://www.w3.org/2000/svg">
 <path d="m12.67 12.75h-2.17v2.67h2.17c0.74 0 1.33-0.6 1.33-1.33s-0.6-1.34-1.33-1.34z"/>
 <path d="m12.67 8.5801h-2.17v2.67h2.17c0.74 0 1.33-0.6 1.33-1.33s-0.6-1.34-1.33-1.34z"/>
 <path d="m23 11c-1.19 0-2.25-0.76-2.63-1.9-0.24-0.73-0.37-1.5-0.37-2.27v-0.82999c0-1.66-1.34-3-3-3h-10c-1.66 0-3 1.34-3 3v0.84c0 0.77-0.12 1.53-0.37 2.27-0.38 1.13-1.44 1.9-2.63 1.9v2c1.19 0 2.25 0.76 2.63 1.9 0.24 0.73 0.37 1.5 0.37 2.26v0.83c0 1.66 1.34 3 3 3h10c1.66 0 3-1.34 3-3v-0.84c0-0.77 0.12-1.53 0.37-2.26 0.38-1.13 1.44-1.9 2.63-1.9v-2zm-7.5 3.08c0 1.56-1.27 2.83-2.83 2.83h-2.92c-0.41 0-0.75-0.34-0.75-0.75v-8.33c0-0.41 0.34-0.75 0.75-0.75h2.92c1.56 0 2.83 1.27 2.83 2.83 0 0.82-0.35 1.57-0.92 2.08 0.57 0.53 0.92 1.27 0.92 2.09z"/>
</svg>
